X:2
T:Rosling(sic) Castle. JJo.002
S:J.Jones MS,1801,N.Shrops.
C:Richard Hewitt
A:N Shropshire
Z:Neil Brookes
M:4/4
L:1/8
Q:1/4=100
K:Emin
GF|E2B2B2 AB|cBAG FA GF|E2e2 ef g2|fede dc B2|!
ABcB AG F2|GABG FE ed|ef ge fd eB|cA G2F2E2:|!
|:e2 ef g2 fe|b2 ag f2 ed|eB ef g2 fe|dedc B2 AB|!
cB AG F2 GA|BG FE edef|ge df eB cA|G2F2E4:|

